svgs/light/house-signal.svg

<svg xmlns="http://www.w3.org/2000/svg" viewBox="0 0 576 512"><!--! Font Awesome Pro 6.4.2 by @fontawesome - https://fontawesome.com License - https://fontawesome.com/license (Commercial License) Copyright 2023 Fonticons, Inc. --><path d="M325.6 3.9c6-5.1 14.8-5.1 20.8 0l224 192c6.7 5.8 7.5 15.9 1.7 22.6s-15.8 7.5-22.6 1.7L512 187.9V352c0 35.3-28.7 64-64 64H278.1c-3.1-11-6.9-21.7-11.3-32H448c17.7 0 32-14.3 32-32V160.5L336 37.1 192 160.5V284.3c-10.1-8.3-20.8-15.9-32-22.7V187.9l-37.6 32.2c-6.7 5.8-16.8 5-22.6-1.7s-5-16.8 1.7-22.6l224-192zM304 176h64c17.7 0 32 14.3 32 32v64c0 17.7-14.3 32-32 32H304c-17.7 0-32-14.3-32-32V208c0-17.7 14.3-32 32-32zm0 32v64h64V208H304zM16 256c132.5 0 240 107.5 240 240c0 8.8-7.2 16-16 16s-16-7.2-16-16c0-114.9-93.1-208-208-208c-8.8 0-16-7.2-16-16s7.2-16 16-16zM32 448a32 32 0 1 1 0 64 32 32 0 1 1 0-64zM0 368c0-8.8 7.2-16 16-16c79.5 0 144 64.5 144 144c0 8.8-7.2 16-16 16s-16-7.2-16-16c0-61.9-50.1-112-112-112c-8.8 0-16-7.2-16-16z"/></svg>

<svg xmlns="http://www.w3.org/2000/svg" viewBox="0 0 576 512"><!--! Font Awesome Pro 6.1.1 by @fontawesome - https://fontawesome.com License - https://fontawesome.com/license (Commercial License) Copyright 2022 Fonticons, Inc. --><path d="M325.6 3.852C331.6-1.284 340.4-1.284 346.4 3.852L570.4 195.9C577.1 201.6 577.9 211.7 572.1 218.4C566.4 225.1 556.3 225.9 549.6 220.1L512 187.9V352C512 387.3 483.3 416 448 416H296.4C293.8 405.1 290.5 394.4 286.6 384H448C465.7 384 480 369.7 480 352V160.5L336 37.07L192 160.5V260C181.8 252.6 171.2 245.9 160 239.9V187.9L122.4 220.1C121.4 221 120.3 221.7 119.2 222.3C112.3 219.1 105.3 217.9 98.21 216.1C94.34 209.6 95.61 200.1 101.6 195.9L325.6 3.852zM368 176C385.7 176 400 190.3 400 208V272C400 289.7 385.7 304 368 304H304C286.3 304 272 289.7 272 272V208C272 190.3 286.3 176 304 176H368zM304 272H368V208H304V272zM256 496C256 504.8 248.8 512 240 512C231.2 512 224 504.8 224 496C224 381.1 130.9 288 16 288C7.164 288 0 280.8 0 272C0 263.2 7.164 256 16 256C148.5 256 256 363.5 256 496zM0 480C0 462.3 14.33 448 32 448C49.67 448 64 462.3 64 480C64 497.7 49.67 512 32 512C14.33 512 0 497.7 0 480zM0 368C0 359.2 7.164 352 16 352C95.53 352 160 416.5 160 496C160 504.8 152.8 512 144 512C135.2 512 128 504.8 128 496C128 434.1 77.86 384 16 384C7.164 384 0 376.8 0 368z"/></svg>
